X: 1
T: Bunjeva\vcko Moma\vcko Kolo    [D]
O: Croatia, Serbia
R: kolo
M: 2/4
L: 1/16
K: D
|:\
"G"[b4g4] "D"[af][bg][af][ge] | [fd][ec][fd][ge] [a2f2][a2f2] |\
"G"[b2g2][b2g2] "D"[af][bg][af][ge] | [fd][ec][fd][ge] "A"[e2c2][e2c2] :|
|:\
"D"[d2A2][ec][fd] "A"[g2e2][gc][ac] | "D"[f2d2][fd][ge] "A"[a2c2][a2e2] |\
"D"[d2A2][ec][fd] "A"[g2e2][gc][ac] | "D"[fd][ec][fd][ge] "A"[e2c2][e2c2] :|
|:\
"D"[d2F2][d2F2] "A"[e2G2][eG][fA] | "D"[d2F2][d2F2] "A"[e2G2][eG][fA] |\
"D"[d2F2][d2F2] "A"[e2G2][eG][fA] | "D"[d2F2][d2F2] "A"[A2E2][A2E2] :|

%%sep 1 1 500
%%sep 1 1 500

